X: 75
T: Farewell to Whiskey
C: Neil Gow
M: 4/4
R: polka
K: G
GE|"G" D2G2 B2AG |"C" A2E2 E3G |"G" D2G2 B2AG | "Bm"d2B2 B3d |
"C"e2g2 "G"d2B2 | "Am"cBAG "D7"A2B2 |"G" D2G2 "D7"BAGA | "G"B2G2 G3 :|
|:Bc |"G" d2B2 g2B2 | "Am"cBAG "D7"A2Bc |"G" d2B2 g2d2 |"C" e2f2"G" g3d |
"C"e2g2 "G"d2B2 | "Am"cBAG "D7"A2B2 |"G" D2G2 "D7"BAGA | "G"B2G2 G3 :|
